X:1
T:6 Songs, Op.3
T:Liebe und Frühling II
T:3. Liebe und Frühling II
T:Johannes Brahms
T:6 Songs, Op.3
T:August Hoffman von Fallersleben
T:OpenScore (CC0)
T:OpenScore (CC0)
T:OpenScore (CC0)
C:Johannes Brahms
Z:August Heinrich Hoffmann von Fallersleben
Z:OpenScore (CC0)
%%score 1 { ( 2 4 ) | ( 3 5 ) }
L:1/8
Q:1/4=168
M:4/4
K:B
V:1 treble nm="Singstimme\nVoice"
V:2 treble nm="Pianoforte"
V:4 treble 
V:3 bass 
V:5 bass 
V:1
"^Vivace con fuoco" z | z4 z2 z!p!"^cresc." F | F3 G!<(! A3 B | (cde)!<)! z/!f! ^e/ (!>!e2 f) z | %4
w: |Ich|muss hin- aus, ich|muss * * zu  dir, *|
 z2 z d!>(! (c2 B)!>)! =A |!<(! G2 c2!<)!!>(! B2!>)! ^A z |!p!"^cresc." F2 F G =A3!<(! B | %7
w: ich muss * es|selbst dir sa- gen:|du bist mein Früh- ling,|
 (cde)!<)! z/!f! ^e/ (!>!e2 f) z | z2 z!>(! =d c2 B!>)! d |"^sostenuto"!<(! (^d2!<)! g2-) (gfe) c | %10
w: du * * nur mir *|in die- * sen|lich- * * * * ten|
!>(! c2!>)!!p! B2 z4 | %11
w: Ta- gen.|
[Q:1/4=168] z8[Q:1/4=167][Q:1/4=166][Q:1/4=165][Q:1/4=164][Q:1/4=163][Q:1/4=162][Q:1/4=161][Q:1/4=160][Q:1/4=159][Q:1/4=158][Q:1/4=157][Q:1/4=156][Q:1/4=155][Q:1/4=154][Q:1/4=153] | %12
w: |
[Q:1/4=152] z4[Q:1/4=144] z2[Q:1/4=140] z[Q:1/4=168]"^a tempo"!p! F[Q:1/4=146] || %13
w: Ich|
[K:D]"^dolce ed espressivo" F3 =G G3 G |!<(! (GBe)!<)! d!mp! (d2 c) z | z2 z A!<(! A3 ^A | %16
w: will die Ro- sen|nicht * * mehr sehn, *|nicht mehr die|
 (^Acf)!<)!!f!!>(! e e2 d!>)! d |!p! f2 e2 d2 c2 | B2 c2 ^A2 z!<(! c!<)! | %19
w: grü- * * nen Mat- ten, ich|will nicht mehr zu|Wal- de gehn nach|
!mp!!>(! f2 e2 d2!>)!"^poco rit."[Q:1/4=168]!p! c2[Q:1/4=166] | %20
w: Duft und Klang und|
[Q:1/4=164] B2[Q:1/4=160]!>(! c2[Q:1/4=156] ^A2!>)![Q:1/4=152] z[Q:1/4=150] F[Q:1/4=162][Q:1/4=158][Q:1/4=154] | %21
w: Schat- * ten. Ich|
[K:Db]!pp![Q:1/4=168]"^sehr zart und innig" G3 G G3 G |!<(! (G2 B2 e2) d2!<)! | %23
w: will nicht mehr der|Lüf- * * te|
!>(! (!>!d4 c2)!>)!!p! z2 | z2 z A A3 =A |!<(! (=A2 c2 f2)!<)!!mp! e2 |!>(! e4 d2!>)! z!pp! d | %27
w: Zug, *|nicht mehr der|Wel- * * len|Rau- schen, ich|
 f2 e2 d2 c2 | B2 c2 =A2 z!<(! c!<)! |!mp!!>(! f2 e2 d2 c2!>)! |"^cresc." (B2 c2- c2 d2- | %31
w: will nicht mehr der|Vö- gel Flug und|ih- rem Lie- de|lau- * * *|
!<(! d2"^rit."[Q:1/4=168] e2!<)![Q:1/4=165]!>(! g2[Q:1/4=162] _f2)!>)![Q:1/4=166]"^.5"[Q:1/4=163]"^.5"[Q:1/4=160]"^.5" | %32
w: |
!p![Q:1/4=159] !fermata!_f6[Q:1/4=150] z2 || %33
w: schen.|
[K:B][Q:1/4=168]"^a tempo" z4 z2 z[Q:1/4=168]"^Lebhaft" F |"^cresc." F3!<(! G A3 B | %35
w: Ich|will hin- aus, ich|
 (cde)!<)! z/!f! ^e/ (!>!e2 f) z | z2 z!>(! d (c2 B) =A!>)! |!<(! G2 c2!<)!!>(! B2 ^A!>)! z | %38
w: will * * zu dir, *|ich will * es|selbst dir sa~- gen:|
!p!"^cresc."!<(! F2 F G =A3 B | (cde)!<)! z/!f! ^e/ (!>!e2 f) z | z2 z!>(! =d (c2 B)!>)!!p!!<(! d | %41
w: du bist mein Früh- ling,|du * * nur mir *|in die- * sen|
 (^d2!<)!!mp!"^cresc." g6-) |!f! g4-[Q:1/4=160]"^lento ad lib." (g[Q:1/4=152]f[Q:1/4=140]e)!p! c | %43
w: lich- *|* * * * ten|
[Q:1/4=168]"^a tempo"!>(! c2[Q:1/4=166] B2!>)![Q:1/4=163]"^.4"!pp! z4[Q:1/4=168][Q:1/4=167]"^.3"[Q:1/4=166]"^.7"[Q:1/4=165]"^.4"[Q:1/4=164]"^.7"[Q:1/4=164]"^.1"[Q:1/4=162]"^.8"[Q:1/4=162]"^.1"[Q:1/4=161]"^.5"[Q:1/4=160]"^.8"[Q:1/4=160]"^.2"[Q:1/4=159]"^.5"[Q:1/4=158]"^.9" | %44
w: Ta~- gen|
[Q:1/4=158]"^.2" z8[Q:1/4=157]"^.6"[Q:1/4=156]"^.9"[Q:1/4=156]"^.3"[Q:1/4=155]"^.6"[Q:1/4=155][Q:1/4=154]"^.3"[Q:1/4=153]"^.7"[Q:1/4=153][Q:1/4=152]"^.4"[Q:1/4=151]"^.7"[Q:1/4=151]"^.1"[Q:1/4=150]"^.4"[Q:1/4=149]"^.8"[Q:1/4=149]"^.1"[Q:1/4=148]"^.5" | %45
w: |
[Q:1/4=147]"^.8" !fermata!z4 z2 z |] %46
w: |
V:2
!f! F | F3 [^EF] [EF]3 [=EF] |!p! E/"_cresc."F/E/F/ E/F/E/F/ E/F/E/F/ E/F/E/F/ | %3
!<(! E/F/E/F/ E/F/E/!ff!F/!<)! E/F/E/F/ E/F/E/F/ | %4
 D/F/D/F/ D/F/D/F/!>(! D/F/D/F/ D/F/D/!mp!F/!>)! | %5
!<(! D/E/D/E/ C/E/C/E/!<)!!f!!>(! B,/D/B,/D/ ^A,/C/A,/C/!>)! |!p!"_cresc." [DF]8 | %7
!<(! !>![DF]4!<)!!f! !>![=DG]4- | [DG]8 |"^sostenuto" F8 | %10
 A,/E/A,/E/"_dim." B,/D/B,/D/ G,/C/G,/C/ F,/D/F,/D/ | A,/E/A,/E/ B,/D/B,/D/ G,/C/G,/C/ G,/C/G,/C/ | %12
!pp! [F,D]3 F F3!p! F ||[K:D] F3 [F=G] [FG]3 [EG] |!<(! (GBed)!<)!!>(! (d2 c)A!>)! | %15
 A3 [GA] [GA]3!<(! [F^A] | (^Acfe)!<)!!>(! (e2 d)!>)! z |!p! (f2 e2 d2 c2) | (B2 c2 ^A2) z c | %19
!>(! (f2 e2!>)! d2 c2) | (B2 c2 ^A2) z2 |[K:Db]!pp! G3 G G3 G |!<(! (GBgf ebe'!mp!d')!<)! | %23
!>(! (!arpeggio!!>![e-g-d']4 [egc']2)!>)! z A | A3 A A3 =A | (=Ac=a=g fc'f'e') | %26
 (!arpeggio!!>![f-b-e']4 [fbd']2) z2 | (f2 e2 d2 c2) | (B2 c2 =A2) z (c |!>(! f2 e2 d2!>)! c2) | %30
"_cresc." (B2 c2- c2 d2- |!<(! d2 _e2!<)!!f!!>(! g2!>)! _f2) | !fermata!_f6 z!f! G || %33
[K:B] F3 [^EF] [EF]3!p! [=EF] |"^trem."!<(! !///-!E2 F2 !///-!E2 F2!<)! | %35
 !///-!E2 F2!f! !///-!D2 F2 | !///-!D2 F2!>(! !///-!D2 F2!>)! | %37
!p! !///-!D!<(! E !///-!C E!<)!!f!!>(! !///-!B, D !///-!^A, C!>)! |"_cresc." [DF]8 | %39
!<(! !>![DF]4!<)!!f! !>![=DG]4- |!>(! [DG]8!>)! | F4 z4 | %42
 !///-!E ^A !///-!=A ^B!f! !>!!fermata![^Ac]4 | %43
!p! A,/"_dim."E/A,/E/ =B,/D/B,/D/ G,/C/G,/C/ F,/D/F,/D/ | %44
 A,/E/A,/E/ B,/D/B,/D/!pp!!>(! G,/C/G,/C/ G,/C/G,/C/ | !fermata![F,D]6!>)!!ppp! z |] %46
V:3
 z | z8 | z8 | z4!ped! [B,,=A,B,]3!ped-up![K:treble] !wedge!d | (!>!c2 B) z[K:bass] !>![B,,=A,]4 | %5
 [C,G,]4 [F,,F,]4 | !>![B,,,B,,]8 | [B,,,B,,]4!ped! [E,,B,,=D,E,]3!ped-up![K:treble] !wedge!=d | %8
 (!>!c2 B) z[K:bass] [^E,,B,,^E,]4 |!<(! F,2 (!>!=A,2 ^A,2)!<)!!f! F,2 | (!>!G,2 F,2 E,2 B,,2) | %11
"^ritenuto" (G,,2 F,,2 E,,4 | B,,,3) z z4 ||[K:D]"^dolce ed espressivo" z8 | z2 G,2 A,3 z | z8 | %16
 z2 (^A,2 B,3) z | (D2 C2 B,2 =A,2 | ^G,2 =G,2 F,2 F,,2) | (D2 C2 B,2 =A,2 | ^G,2 =G,2 F,2 F,,2) | %21
[K:Db] z2 z F F3 E | E4- [G,E]4 | [A,EA]6 z2 | z2 z G G3 F | F4- [=A,F]4 | [B,FB]6 z2 | %27
 (D2 C2 B,2 _A,2 | =G,2 _G,2 F,2 F,,2) | D2 C2 B,2 _A,2 | =G,2 _G,4 G,2- | G,2 G,4!ped! G,2 | %32
 !arpeggio!!fermata![G,B,D_F]6 z2!ped-up! ||[K:B] z8 |"^cresc." z8 | %35
 z4!ped! !>![B,,=A,B,]3!ped-up![K:treble] .d | (!>!c2 B) z[K:bass] [B,,=A,]4 | [C,G,]4 [F,,F,]4 | %38
 [B,,,B,,]8 | [B,,,B,,]4 [E,,B,,=D,E,]3[K:treble] .d | (!>!c2 B) z[K:bass] [^E,,B,,^E,]4 | %41
 F,2 (!>!=A,2 ^A,2) (!>!^B,2 | C2) (D2"^colla voce" !>!E4) | (G,2 F,2 E,2 B,,2) | %44
 (G,,2 F,,2 E,,4) | !fermata!B,,,6 z |] %46
V:4
 x | x8 | x8 | x8 | x8 | x8 | =A,/B,/A,/B,/ A,/B,/A,/B,/ A,/B,/A,/B,/ A,/B,/A,/B,/ | %7
 =A,/B,/A,/B,/ A,/B,/A,/B,/ G,/B,/G,/B,/ G,/B,/G,/B,/ | %8
 G,/B,/G,/B,/!>(! G,/B,/G,/B,/ G,/B,/G,/B,/ G,/B,/G,/!mp!B,/!>)! | %9
 B,/^D/B,/D/ ^B,/D/B,/D/ C/E/C/E/ A,/E/A,/E/ | x8 | x8 | x8 ||[K:D] x8 | E2 [EB]2 [EG]3 z | x8 | %16
 F2 F2 [FB]3 z | z [FB]z[F^A]z[FB]zF | z Fz!<(![C^E]z[CF]z[F^A]!<)! | z [FB]z[F^A]z[FB]zF | %20
 z!>(! Fz[C^E]z[CF]zF!>)! |[K:Db] x8 | x8 | x8 | x8 | x8 | x8 | z [FB]z[F=A]z[FB]zF | %28
 z Fz[C=E]z!<(![CF]z[F=A]!<)! | z [FB]z[F=A]z[FB]z!pp!F | z Fz[=EB]z[EB]z!mp![_FB] | %31
 z!<(! [_FB]z[=A=c]!<)!z!>(![Ac]z!>)![Bd] | [Bd]6 x x ||[K:B] x8 | x8 | x8 | x8 | x8 | %38
 !///-!=A,2 B,2 !///-!A,2 B,2 | !///-!=A,2 B,2 !///-!G,2 B,2 | !///-!G,2 B,2 !///-!G,2 B,2 | %41
 !///-!B, ^D !///-!^B,"_cresc." D !///-!C E !///-!D =A | x8 | x8 | x8 | x7 |] %46
V:5
 x | x8 | x8 | x7[K:treble] x | x4[K:bass] x4 | x8 | x8 | x7[K:treble] x | x4[K:bass] x4 | %9
 F,,2 F,4 F,,2 | B,,4 z4 | x8 | x8 ||[K:D] x8 | x8 | x8 | x8 | x8 | x8 | x8 | x8 |[K:Db] x8 | x8 | %23
 x8 | x8 | x8 | x8 | x8 | x8 | x8 | x2 G,2 _G,,4 | G,,4"^rit." G,,4 | x8 ||[K:B] x8 | x8 | %35
 x7[K:treble] x | x4[K:bass] x4 | x8 | x8 | x7[K:treble] x | x4[K:bass] x4 | F,,2 F,4 F,2- | %42
 F,2 F,2- !fermata!F,4 | B,,4 z4 | x8 | x7 |] %46

